X: 16964
T: Hay De Gie
R: jig
M: 6/8
K: Gmajor
|:"G" B2G B2G|"C" c2c2 dc|"G" B2G B2G|"D" A2A2 GA|
"G" B2G B2G|"C" c2c2 dc|"G" BAG "D" A2F|1 "G" G2 G2 GA:|2 "G" G2G ABc||
"G" d3 d2 B|"C" c2c2 dc|"G" BAG c2B|"D" A2A2 Bc|
"G" d3 d2 B|"C" c2c2 dc|"G" BAG "D" A2F|1 "G" G2G ABc:|2 "G" G2G2 GA||

